X:31
T:Cheshire Waltz
M:3/8
L:1/8
S:Joshua Gibbons Manuscripts - Lincolnshire Collections 1
N:Transposed from the original key of C by Peter D Sumner
Z:Peter Dunk 12 May 2007
K:D
|:A |ff/g/f/e/ | dd/e/d/c/ | Bcd | A2f | gfe | bac | edd | d2 :|
g | fa/f/e/d/ | ceg | f/a/f/d/B/F/ | DFA | GBf | ged | ce/d/c/B/ | A2A |
ff/g/f/e/ | dd/e/d/c/ | Bcd | A2f | gfe | bac | edd | d2:|
A | FAd | dcB | cea | g2f | gfg | Bed | cdB | A2:|
G | FAd | dcB | cea | g2f | gfg | Bed | d/c/B/A/B/c/ | d2 :|
